X:589
T: "Frohsinn"
N: Z1269
O: Europa, Mitteleuropa, Oesterreich
R: Natur und Welt
M: 3/4
L: 1/8
K: G
 | DGG2G2 | A2ce
c2 | DFF2F2 | G2Bg
d2 | DGG2G2 | A2ce
c2 | DFF2F2 | G4z2

@@@ Tune index: 10347
